public/avatar/body/173.svg

<svg xmlns:xlink="http://www.w3.org/1999/xlink" height="82" width="84.85" xmlns="http://www.w3.org/2000/svg"><use height="38.3" transform="translate(24.55 25.2)" width="34.15" xlink:href="#a"/><defs><g id="a" fill-rule="evenodd"><path d="m16.3-7.05-.05-1.7-2-2.5-1.15-2.45q-2.25-1.4-4.55-2-6.9-1.5-13.2 2l-3.2 4.95-.05 1.5v.5l-.6.4-1.55 3.65.4 1.55.15.55-.65.7q-1 1.05-1.35 2.5l-.15.95v.15l-.1.4-.15 1.2.55.8q-.2 2.3.2 4.5.5 2.55 1.7 4.8l.85 1.5.65-.3 1.05-.55.8.65.5 1.7 2.35 1.05 2-.55q0 .55.55.95.55.4 1.35.4l.3.05 2.25.05 4.7.15.65-.8 1.1-.9 1.75.6 2.85-.75.1-1.3 1.3-.95 1.25.5q2.05-2.2 2.85-5l.35-1.3.1-.9q.4-1.8-.55-3.45L20 5.8l.25-.4v-.45l-.7-3.85L17.9-.6l.4-1.85.1-.45-.5-1.25-1.6-2.9m1.8.7 1.05 2.15q.55 1.45-.05 3.05l1.75 3.3q.95 2.1-.1 4.1.65 2.2.35 4.35l-.6 2-1.1 2.4q-.85 1.6-2.25 2.7l-1.9-.6-.3 1.95L9.3 20.4l-7.2.85q-2 0-3.45-1.5l-1.9.55-3.2-1.2-.55-2.05-1.3.7-1.2-1.7q-1.8-2.6-2.65-5.45-1.9-6.6 1.4-14.1Q-9.6-6-8.6-8.6q2.4-6.4 9.1-8 11.35-2.3 16.35 7.35l.45 1.75.8 1.15" transform="translate(12.85 17.05)"/><path d="M14.25-11.25q-3.3 2.15-6.8 2.45l-.85-.15.35-1.6Q0-10.15-6.4-7.95h5.95l-6.2 1.4-1.25-.7.05-1.5 3.2-4.95q6.3-3.5 13.2-2 2.3.6 4.55 2l1.15 2.45" fill="#ffffbd" transform="translate(12.85 17.05)"/><path d="M16.3-7.05 1.85-3.35l4.6.45Q4.5-1.1 2.05-1.6l-10.4-2.35 4.45-1.2-2.75-1.4 6.2-1.4H-6.4q6.4-2.2 13.35-2.6l-.35 1.6.85.15q3.5-.3 6.8-2.45l2 2.5.05 1.7M2.7-5.15q2.15 0 3.4-1.85l-9.65 1.2 6.25.65m1 8.25L2 3.5q-3.35.55-6.75-.7Q1.4 1.2 7.9 1.15L3.7 3.1" fill="#ff0" transform="translate(12.85 17.05)"/><path d="m2.7-5.15-6.25-.65L6.1-7Q4.85-5.15 2.7-5.15m-9.35-1.4 2.75 1.4-4.45 1.2L2.05-1.6q2.45.5 4.4-1.3l-4.6-.45 14.45-3.7 1.6 2.9-6.65 1.5-3.4 1.1L4.6.05 18-1.2l.3-1.25-.4 1.85 1.65 1.7L7.3 3 3.25 4l4.65-.35q-2.8 2-6.35 2.7Q-5 7.65-10.1 3.5l3.4-.5 3.2-1.2 1.4-.65-7.55-2.3-.4-1.55 1.55-3.65.6-.4v-.5l1.25.7m-5.1 10.65.1-.4-.1.45V4.1m29.9-.35-1.6 1q-4.2 1.05-8.65.75 4.75-2.6 10.25-1.75M3.7 3.1l4.2-1.95Q1.4 1.2-4.75 2.8q3.4 1.25 6.75.7l1.7-.4" fill="#ffda00" transform="translate(12.85 17.05)"/><path d="m-9.65-1.15 7.55 2.3-1.4.65L-6.7 3l-3.4.5Q-5 7.65 1.55 6.35q3.55-.7 6.35-2.7L3.25 4 7.3 3l12.25-1.9.7 3.85L17.4 6 4 7.4h-.65L7.9 9l2.2 1-1.6.6Q5.15 11.9 1.55 12q-3.6.25-7.15-.7L.55 8.9q-6.25-1.8-12.3-4.75l.1-.45v-.15l.15-.95q.35-1.45 1.35-2.5l.65-.7-.15-.55m27.95-1.3L18-1.2 4.6.05l3.25-1.6 3.4-1.1 6.65-1.5.5 1.25-.1.45m-.15 6.2Q12.65 2.9 7.9 5.5q4.45.3 8.65-.75l1.6-1" fill="#f98200" transform="translate(12.85 17.05)"/><path d="M20.25 4.95v.45l-.25.4-2.6.2 2.85-1.05m-31.6 1.15-.55-.8.15-1.2v.05Q-5.7 7.1.55 8.9l-6.15 2.4q3.55.95 7.15.7 3.6-.1 6.95-1.4l1.6-.6-2.2-1 6.55.65-5.4 2.5-1.7-.15.35.4-5.25.5 5.9 1-2.7.5-8.1-.6q-3.75-.95-6.95-2.75l6-1.2 1.9-.2-.5-.3.6-.3-2.15-.55-3.5-1-4.3-1.4" fill="#f93800" transform="translate(12.85 17.05)"/><path d="m20 5.8-.35.45q.95 1.65.55 3.45L9.05 12.15l5.4-2.5L7.9 9 3.35 7.4H4L17.4 6l2.6-.2M-7.95 16.6l-.65.3-.85-1.5q-1.2-2.25-1.7-4.8-.4-2.2-.2-4.5l4.3 1.4-3.9 1.05-.2 1.15.7.6 7.05-.45-6 1.2q3.2 1.8 6.95 2.75l8.1.6 2.7-.5-5.9-1 5.25-.5 2.9 1.8-8.4 1.95.45.2 4.8.95-2.4.55-2.4.65-4.5-.25-1.5-.7 1.95-.05 2.05-.6-2.25-.65.4-.4-1.05-.4-1.15-.25-.5-.1-.25-.7-3.35-.45-2.75-1.45.75 1.3-.75-.35 2.3 3.15m17.2-8.85-1.55.2q1.35 1.2 3.2 1.15l.85-.25q2 .6 3.45-.7l1.05-1-7.5.05.5.55m-12.8.75 2.15.55-.6.3-1.55-.85m1.5 6.3Q.3 16.65 3 15.65q-1.85-1.1-3.95-.95l-1.1.1" fill="#1e1e1e" transform="translate(12.85 17.05)"/><path d="m9.65 18.8-1.1.9-2.45.3 3.25-1.35-3.45-.05 3.8-.25-.05.45M3.2 20.35.95 20.3l2.45-.25-.2.3m-2.55-.1q-.8 0-1.35-.4t-.55-.95l3.95-.15-3.45.7 1.4.8M-6.1 16.7l-.8-.65-.55-1 4.05.15 1.15.25-2.7-.25.4 1.15 2.95-.1 2.25.65-2.05.6-1.95.05-2.75-.85M9.25 7.75 15 8.2l-3.25.65-.85.25q-1.85.05-3.2-1.15l1.55-.2m2.65 5.1 1.3-.55q2.45-1 5.2-1l-.7 1.6-3.25 1.4-.7-.75.6-.65-2.45-.05m.85 4.65-1.05.3-4.6-.8-.15-1.2-.3-.35 7.1.4-.45-.15.75.1-1.3 1.7m.45-3.15-2.55-.55 1.15-.85.15.85 1.8-.25-.55.8M8.9 16.1l-1.65-.25.35 1.1 1.65-.4-.35-.45M-9.9 8.9l3.85-.5 1.25.4-5.8.5.7-.4" fill="#999" transform="translate(12.85 17.05)"/><path d="m20.2 9.7-.1.9-.35 1.3q-.8 2.8-2.85 5l-1.25-.5 2.9-3.95-.85.45.7-1.6q-2.75 0-5.2 1l-1.3.55-.1.05v.05l-1.15.85 2.55.55-1.7 1.3 1.8.05.45.15-7.1-.4.3.35.15 1.2 4.6.8 1.05-.3-1.3.95.65.2 2.25-1.3-.1 1.3-2.85.75-1.75-.6.05-.45-3.8.25-3.2.15-3.95.15-2 .55-2.35-1.05-.5-1.7 2.75.85 1.5.7 4.5.25 2.4-.65 2.4-.55-4.8-.95-.45-.2 8.4-1.95-2.9-1.8-.35-.4 1.7.15L20.2 9.7m-11.65 10-.65.8-4.7-.15.2-.3L6.1 20l2.45-.3M-6.9 16.05l-1.05.55-2.3-3.15.75.35 1.25.5.5-.15.85.5-.6-.7 3.35.45.25.7.5.1-4.05-.15.55 1m18.65-7.2L15 8.2l-5.75-.45-.5-.55 7.5-.05-1.05 1q-1.45 1.3-3.45.7M-9.9 8.9l-.7.4 5.8-.5-1.25-.4-3.85.5m6.35-.4 1.55.85.5.3-1.9.2-7.05.45-.7-.6.2-1.15 3.9-1.05 3.5 1m1.5 6.3 1.1-.1q2.1-.15 3.95.95-2.7 1-5.05-.85" fill="#666" transform="translate(12.85 17.05)"/><path d="m15.65 16.4-1.3.95-2.25 1.3-.65-.2 1.3-.95 1.3-1.7-.75-.1-1.8-.05 1.7-1.3.55-.8.7.75 3.25-1.4.85-.45-2.9 3.95M.95 20.3l-.3-.05-1.4-.8 3.45-.7 3.2-.15 3.45.05L6.1 20l-2.7.05-2.45.25m10.85-7.35v-.05l.1-.05 2.45.05-.6.65-1.8.25-.15-.85M8.9 16.1l.35.45-1.65.4-.35-1.1 1.65.25m-11.15-.65 1.05.4-.4.4-2.95.1-.4-1.15 2.7.25m-5.25-1.5.6.7-.85-.5-.5.15-1.25-.5-.75-1.3 2.75 1.45" fill="#ccc" transform="translate(12.85 17.05)"/></g></defs></svg>

<?xml version="1.0" encoding="UTF-8" standalone="no"?>
<svg xmlns:xlink="http://www.w3.org/1999/xlink" height="82.0px" width="84.85px" xmlns="http://www.w3.org/2000/svg">
  <g transform="matrix(1.0, 0.0, 0.0, 1.0, 37.4, 42.25)">
    <use height="38.3" transform="matrix(1.0, 0.0, 0.0, 1.0, -12.85, -17.05)" width="34.15" xlink:href="#shape0"/>
  </g>
  <defs>
    <g id="shape0" transform="matrix(1.0, 0.0, 0.0, 1.0, 12.85, 17.05)">
      <path d="M16.3 -7.05 L16.25 -8.75 14.25 -11.25 13.1 -13.7 Q10.85 -15.1 8.55 -15.7 1.65 -17.2 -4.65 -13.7 L-7.85 -8.75 -7.9 -7.25 -7.9 -6.75 -8.5 -6.35 -10.05 -2.7 -9.65 -1.15 -9.5 -0.6 -10.15 0.1 Q-11.15 1.15 -11.5 2.6 L-11.65 3.55 -11.65 3.7 -11.75 4.1 -11.9 5.3 -11.35 6.1 Q-11.55 8.4 -11.15 10.6 -10.65 13.15 -9.45 15.4 L-8.6 16.9 -7.95 16.6 -6.9 16.05 -6.1 16.7 -5.6 18.4 -3.25 19.45 -1.25 18.9 Q-1.25 19.45 -0.7 19.85 -0.15 20.25 0.65 20.25 L0.95 20.3 3.2 20.35 7.9 20.5 8.55 19.7 9.65 18.8 11.4 19.4 14.25 18.65 14.35 17.35 15.65 16.4 16.9 16.9 Q18.95 14.7 19.75 11.9 L20.1 10.6 20.2 9.7 Q20.6 7.9 19.65 6.25 L20.0 5.8 20.25 5.4 20.25 4.95 19.55 1.1 17.9 -0.6 18.3 -2.45 18.4 -2.9 17.9 -4.15 16.3 -7.05 M18.1 -6.35 L19.15 -4.2 Q19.7 -2.75 19.1 -1.15 L20.85 2.15 Q21.8 4.25 20.75 6.25 21.4 8.45 21.1 10.6 L20.5 12.6 19.4 15.0 Q18.55 16.6 17.15 17.7 L15.25 17.1 14.95 19.05 9.3 20.4 2.1 21.25 Q0.1 21.25 -1.35 19.75 L-3.25 20.3 -6.45 19.1 -7.0 17.05 -8.3 17.75 -9.5 16.05 Q-11.3 13.45 -12.15 10.6 -14.05 4.0 -10.75 -3.5 -9.6 -6.0 -8.6 -8.6 -6.2 -15.0 0.5 -16.6 11.85 -18.9 16.85 -9.25 L17.3 -7.5 18.1 -6.35" fill="#000000" fill-rule="evenodd" stroke="none"/>
      <path d="M14.25 -11.25 Q10.95 -9.1 7.45 -8.8 L6.6 -8.95 6.95 -10.55 Q0.0 -10.15 -6.4 -7.95 L-0.45 -7.95 -6.65 -6.55 -7.9 -7.25 -7.85 -8.75 -4.65 -13.7 Q1.65 -17.2 8.55 -15.7 10.85 -15.1 13.1 -13.7 L14.25 -11.25" fill="#ffffbd" fill-rule="evenodd" stroke="none"/>
      <path d="M16.3 -7.05 L1.85 -3.35 6.45 -2.9 Q4.5 -1.1 2.05 -1.6 L-8.35 -3.95 -3.9 -5.15 -6.65 -6.55 -0.45 -7.95 -6.4 -7.95 Q0.0 -10.15 6.95 -10.55 L6.6 -8.95 7.45 -8.8 Q10.95 -9.1 14.25 -11.25 L16.25 -8.75 16.3 -7.05 M2.7 -5.15 Q4.85 -5.15 6.1 -7.0 L-3.55 -5.8 2.7 -5.15 M3.7 3.1 L2.0 3.5 Q-1.35 4.05 -4.75 2.8 1.4 1.2 7.9 1.15 L3.7 3.1" fill="#ffff00" fill-rule="evenodd" stroke="none"/>
      <path d="M2.7 -5.15 L-3.55 -5.8 6.1 -7.0 Q4.85 -5.15 2.7 -5.15 M-6.65 -6.55 L-3.9 -5.15 -8.35 -3.95 2.05 -1.6 Q4.5 -1.1 6.45 -2.9 L1.85 -3.35 16.3 -7.05 17.9 -4.15 11.25 -2.65 7.85 -1.55 4.6 0.05 18.0 -1.2 18.3 -2.45 17.9 -0.6 19.55 1.1 7.3 3.0 3.25 4.0 7.9 3.65 Q5.1 5.65 1.55 6.35 -5.0 7.65 -10.1 3.5 L-6.7 3.0 -3.5 1.8 -2.1 1.15 -9.65 -1.15 -10.05 -2.7 -8.5 -6.35 -7.9 -6.75 -7.9 -7.25 -6.65 -6.55 M-11.75 4.1 L-11.65 3.7 -11.75 4.15 -11.75 4.1 M18.15 3.75 L16.55 4.75 Q12.35 5.8 7.9 5.5 12.65 2.9 18.15 3.75 M3.7 3.1 L7.9 1.15 Q1.4 1.2 -4.75 2.8 -1.35 4.05 2.0 3.5 L3.7 3.1" fill="#ffda00" fill-rule="evenodd" stroke="none"/>
      <path d="M-9.65 -1.15 L-2.1 1.15 -3.5 1.8 -6.7 3.0 -10.1 3.5 Q-5.0 7.65 1.55 6.35 5.1 5.65 7.9 3.65 L3.25 4.0 7.3 3.0 19.55 1.1 20.25 4.95 17.4 6.0 4.0 7.4 3.35 7.4 7.9 9.0 10.1 10.0 8.5 10.6 Q5.15 11.9 1.55 12.0 -2.05 12.25 -5.6 11.3 L0.55 8.9 Q-5.7 7.1 -11.75 4.15 L-11.65 3.7 -11.65 3.55 -11.5 2.6 Q-11.15 1.15 -10.15 0.1 L-9.5 -0.6 -9.65 -1.15 M18.3 -2.45 L18.0 -1.2 4.6 0.05 7.85 -1.55 11.25 -2.65 17.9 -4.15 18.4 -2.9 18.3 -2.45 M18.15 3.75 Q12.65 2.9 7.9 5.5 12.35 5.8 16.55 4.75 L18.15 3.75" fill="#f98200" fill-rule="evenodd" stroke="none"/>
      <path d="M20.25 4.95 L20.25 5.4 20.0 5.8 17.4 6.0 20.25 4.95 M-11.35 6.1 L-11.9 5.3 -11.75 4.1 -11.75 4.15 Q-5.7 7.1 0.55 8.9 L-5.6 11.3 Q-2.05 12.25 1.55 12.0 5.15 11.9 8.5 10.6 L10.1 10.0 7.9 9.0 14.45 9.65 9.05 12.15 7.35 12.0 7.7 12.4 2.45 12.9 8.35 13.9 5.65 14.4 -2.45 13.8 Q-6.2 12.85 -9.4 11.05 L-3.4 9.85 -1.5 9.65 -2.0 9.35 -1.4 9.05 -3.55 8.5 -7.05 7.5 -11.35 6.1" fill="#f93800" fill-rule="evenodd" stroke="none"/>
      <path d="M20.0 5.8 L19.65 6.25 Q20.6 7.9 20.2 9.7 L9.05 12.15 14.45 9.65 7.9 9.0 3.35 7.4 4.0 7.4 17.4 6.0 20.0 5.8 M-7.95 16.6 L-8.6 16.9 -9.45 15.4 Q-10.65 13.15 -11.15 10.6 -11.55 8.4 -11.35 6.1 L-7.05 7.5 -10.95 8.55 -11.15 9.7 -10.45 10.3 -3.4 9.85 -9.4 11.05 Q-6.2 12.85 -2.45 13.8 L5.65 14.4 8.35 13.9 2.45 12.9 7.7 12.4 10.6 14.2 2.2 16.15 2.65 16.35 7.45 17.3 5.05 17.85 2.65 18.5 -1.85 18.25 -3.35 17.55 -1.4 17.5 0.65 16.9 -1.6 16.25 -1.2 15.85 -2.25 15.45 -3.4 15.2 -3.9 15.1 -4.15 14.4 -7.5 13.95 -10.25 12.5 -9.5 13.8 -10.25 13.45 -7.95 16.6 M9.25 7.75 L7.7 7.95 Q9.05 9.15 10.9 9.1 L11.75 8.85 Q13.75 9.45 15.2 8.15 L16.25 7.15 8.75 7.2 9.25 7.75 M-3.55 8.5 L-1.4 9.05 -2.0 9.35 -3.55 8.5 M-2.05 14.8 Q0.3 16.65 3.0 15.65 1.15 14.55 -0.95 14.7 L-2.05 14.8" fill="#1e1e1e" fill-rule="evenodd" stroke="none"/>
      <path d="M9.65 18.8 L8.55 19.7 6.1 20.0 9.35 18.65 5.9 18.6 9.7 18.35 9.65 18.8 M3.2 20.35 L0.95 20.3 3.4 20.05 3.2 20.35 M0.65 20.25 Q-0.15 20.25 -0.7 19.85 -1.25 19.45 -1.25 18.9 L2.7 18.75 -0.75 19.45 0.65 20.25 M-6.1 16.7 L-6.9 16.05 -7.45 15.05 -3.4 15.2 -2.25 15.45 -4.95 15.2 -4.55 16.35 -1.6 16.25 0.65 16.9 -1.4 17.5 -3.35 17.55 -6.1 16.7 M9.25 7.75 L15.0 8.2 11.75 8.85 10.9 9.1 Q9.05 9.15 7.7 7.95 L9.25 7.75 M11.9 12.85 L13.2 12.3 Q15.65 11.3 18.4 11.3 L17.7 12.9 14.45 14.3 13.75 13.55 14.35 12.9 11.9 12.85 M12.75 17.5 L11.7 17.8 7.1 17.0 6.95 15.8 6.65 15.45 13.75 15.85 13.3 15.7 14.05 15.8 12.75 17.5 M13.2 14.35 L10.65 13.8 11.8 12.95 11.95 13.8 13.75 13.55 13.2 14.35 M8.9 16.1 L7.25 15.85 7.6 16.95 9.25 16.55 8.9 16.1 M-9.9 8.9 L-6.05 8.4 -4.8 8.8 -10.6 9.3 -9.9 8.9" fill="#999999" fill-rule="evenodd" stroke="none"/>
      <path d="M20.2 9.7 L20.1 10.6 19.75 11.9 Q18.95 14.7 16.9 16.9 L15.65 16.4 18.55 12.45 17.7 12.9 18.4 11.3 Q15.65 11.3 13.2 12.3 L11.9 12.85 11.8 12.9 11.8 12.95 10.65 13.8 13.2 14.35 11.5 15.65 13.3 15.7 13.75 15.85 6.65 15.45 6.95 15.8 7.1 17.0 11.7 17.8 12.75 17.5 11.45 18.45 12.1 18.65 14.35 17.35 14.25 18.65 11.4 19.4 9.65 18.8 9.7 18.35 5.9 18.6 2.7 18.75 -1.25 18.9 -3.25 19.45 -5.6 18.4 -6.1 16.7 -3.35 17.55 -1.85 18.25 2.65 18.5 5.05 17.85 7.45 17.3 2.65 16.35 2.2 16.15 10.6 14.2 7.7 12.4 7.35 12.0 9.05 12.15 20.2 9.7 M8.55 19.7 L7.9 20.5 3.2 20.35 3.4 20.05 6.1 20.0 8.55 19.7 M-6.9 16.05 L-7.95 16.6 -10.25 13.45 -9.5 13.8 -8.25 14.3 -7.75 14.15 -6.9 14.65 -7.5 13.95 -4.15 14.4 -3.9 15.1 -3.4 15.2 -7.45 15.05 -6.9 16.05 M11.75 8.85 L15.0 8.2 9.25 7.75 8.75 7.2 16.25 7.15 15.2 8.15 Q13.75 9.45 11.75 8.85 M-9.9 8.9 L-10.6 9.3 -4.8 8.8 -6.05 8.4 -9.9 8.9 M-3.55 8.5 L-2.0 9.35 -1.5 9.65 -3.4 9.85 -10.45 10.3 -11.15 9.7 -10.95 8.55 -7.05 7.5 -3.55 8.5 M-2.05 14.8 L-0.95 14.7 Q1.15 14.55 3.0 15.65 0.3 16.65 -2.05 14.8" fill="#666666" fill-rule="evenodd" stroke="none"/>
      <path d="M15.65 16.4 L14.35 17.35 12.1 18.65 11.45 18.45 12.75 17.5 14.05 15.8 13.3 15.7 11.5 15.65 13.2 14.35 13.75 13.55 14.45 14.3 17.7 12.9 18.55 12.45 15.65 16.4 M0.95 20.3 L0.65 20.25 -0.75 19.45 2.7 18.75 5.9 18.6 9.35 18.65 6.1 20.0 3.4 20.05 0.95 20.3 M11.8 12.95 L11.8 12.9 11.9 12.85 14.35 12.9 13.75 13.55 11.95 13.8 11.8 12.95 M8.9 16.1 L9.25 16.55 7.6 16.95 7.25 15.85 8.9 16.1 M-2.25 15.45 L-1.2 15.85 -1.6 16.25 -4.55 16.35 -4.95 15.2 -2.25 15.45 M-7.5 13.95 L-6.9 14.65 -7.75 14.15 -8.25 14.3 -9.5 13.8 -10.25 12.5 -7.5 13.95" fill="#cccccc" fill-rule="evenodd" stroke="none"/>
    </g>
  </defs>
</svg>
